round/svg/attach_file.svg

<svg xmlns="http://www.w3.org/2000/svg" width="24" height="24"><path fill="none" d="M0 0h24v24H0V0z"/><g fill="currentColor"><path d="M16.5 6.75v10.58c0 2.09-1.53 3.95-3.61 4.15A3.993 3.993 0 0 1 8.5 17.5V5.14c0-1.31.94-2.5 2.24-2.63A2.5 2.5 0 0 1 13.5 5v10.5c0 .55-.45 1-1 1s-1-.45-1-1V6.75c0-.41-.34-.75-.75-.75s-.75.34-.75.75v8.61c0 1.31.94 2.5 2.24 2.63A2.5 2.5 0 0 0 15 15.5V5.17c0-2.09-1.53-3.95-3.61-4.15A3.998 3.998 0 0 0 7 5v12.27c0 2.87 2.1 5.44 4.96 5.71 3.29.3 6.04-2.26 6.04-5.48V6.75c0-.41-.34-.75-.75-.75s-.75.34-.75.75z"/></g></svg>

<?xml version="1.0" encoding="utf-8"?>
<!-- Generator: Adobe Illustrator 19.1.0, SVG Export Plug-In . SVG Version: 6.00 Build 0)  -->
<svg version="1.1" xmlns="http://www.w3.org/2000/svg" xmlns:xlink="http://www.w3.org/1999/xlink" x="0px" y="0px" width="24px"
	 height="24px" viewBox="0 0 24 24" enable-background="new 0 0 24 24" xml:space="preserve">
<g id="Bounding_Boxes">
	<g id="ui_x5F_spec_x5F_header_copy_3">
	</g>
	<path fill="none" d="M0,0h24v24H0V0z"/>
</g>
<g id="Rounded" fill="currentColor">
	<g id="ui_x5F_spec_x5F_header_copy_6">
	</g>
	<path d="M16.5,6.75l0,10.58c0,2.09-1.53,3.95-3.61,4.15c-2.39,0.23-4.39-1.64-4.39-3.98l0-12.36c0-1.31,0.94-2.5,2.24-2.63
		C12.24,2.36,13.5,3.53,13.5,5v10.5c0,0.55-0.45,1-1,1s-1-0.45-1-1V6.75C11.5,6.34,11.16,6,10.75,6h0C10.34,6,10,6.34,10,6.75
		l0,8.61c0,1.31,0.94,2.5,2.24,2.63c1.5,0.15,2.76-1.02,2.76-2.49l0-10.33c0-2.09-1.53-3.95-3.61-4.15C9.01,0.79,7,2.66,7,5l0,12.27
		c0,2.87,2.1,5.44,4.96,5.71C15.25,23.28,18,20.72,18,17.5V6.75C18,6.34,17.66,6,17.25,6l0,0C16.84,6,16.5,6.34,16.5,6.75z"/>
</g>
</svg>
